Adwaita++-Dark/devices/16/computer-apple-ipad.svg

<svg fill="none" height="16" viewBox="0 0 16 16" width="16" xmlns="http://www.w3.org/2000/svg" xmlns:xlink="http://www.w3.org/1999/xlink">
  <clipPath id="clip0">
    <path d="m5 4.5h6v6h-6z"/>
  </clipPath>
  <path clip-rule="evenodd" d="m4.04999 2.5v10h8.00001v-10zm-.5-1.5c-.55229 0-1 .44772-1 1v12c0 .5523.44771 1 1 1h9.00001c.5523 0 1-.4477 1-1v-12c0-.55228-.4477-1-1-1z" fill="#e6ddff" fill-rule="evenodd"/>
  <g clip-path="url(#clip0)">
    <path d="m10.3072 9.09706c-.0865.19977-.1889.38365-.30746.55271-.16165.23047-.294.39003-.396.47863-.15812.1454-.32753.2198-.50894.2241-.13024 0-.2873-.0371-.47012-.1123-.18342-.0748-.35199-.1118-.50612-.1118-.16164 0-.33501.037-.52044.1118-.18572.0752-.33533.1144-.44972.1183-.17397.0074-.34737-.0692-.52045-.2301-.11047-.0964-.24865-.26157-.41417-.49557-.1776-.24989-.32362-.53965-.438-.87-.12251-.35683-.18392-.70236-.18392-1.03687 0-.38319.0828-.71369.24864-.99064.13035-.22246.30375-.39794.52077-.52676.21702-.12883.45152-.19448.70405-.19868.13817 0 .31937.04275.54455.12675.22454.08428.36872.12702.43193.12702.04726 0 .20742-.04998.47894-.14961.25677-.0924.47347-.13066.651-.11559.48106.03882.84246.22846 1.08286.57011-.43027.26068-.6431.6258-.63886 1.09418.00388.36484.13624.66844.39636.9095.1179.11188.2495.19835.396.25976-.0318.09212-.0653.18036-.1009.26506zm-1.10334-4.34153c0 .28596-.10447.55295-.31271.80008-.25129.29379-.55525.46356-.88486.43677-.0042-.03431-.00663-.07041-.00663-.10835 0-.27452.1195-.56831.33173-.80852.10595-.12163.2407-.22275.40411-.30343.16306-.07946.3173-.12341.46236-.13094.00423.03823.006.07646.006.11439z" fill="#e6ddff"/>
  </g>
</svg>

<svg xmlns="http://www.w3.org/2000/svg" fill="none" width="16" height="16" viewBox="0 0 16 16">
 <path fill="#E6DDFF" fill-rule="evenodd" d="M4.04999 2.5V12.5H12.05V2.5H4.04999ZM3.54999 1C2.9977 1 2.54999 1.44772 2.54999 2V14C2.54999 14.5523 2.9977 15 3.54999 15H12.55C13.1023 15 13.55 14.5523 13.55 14V2C13.55 1.44772 13.1023 1 12.55 1H3.54999Z" clip-rule="evenodd"/>
 <g clip-path="url(#clip0)">
  <path fill="#E6DDFF" d="M10.3072 9.09706C10.2207 9.29683 10.1183 9.48071 9.99974 9.64977C9.83809 9.88024 9.70574 10.0398 9.60374 10.1284C9.44562 10.2738 9.27621 10.3482 9.0948 10.3525C8.96456 10.3525 8.8075 10.3154 8.62468 10.2402C8.44126 10.1654 8.27269 10.1284 8.11856 10.1284C7.95692 10.1284 7.78355 10.1654 7.59812 10.2402C7.4124 10.3154 7.26279 10.3546 7.1484 10.3585C6.97443 10.3659 6.80103 10.2893 6.62795 10.1284C6.51748 10.032 6.3793 9.86683 6.21378 9.63283C6.03618 9.38294 5.89016 9.09318 5.77578 8.76283C5.65327 8.406 5.59186 8.06047 5.59186 7.72596C5.59186 7.34277 5.67466 7.01227 5.8405 6.73532C5.97085 6.51286 6.14425 6.33738 6.36127 6.20856C6.57829 6.07973 6.81279 6.01408 7.06532 6.00988C7.20349 6.00988 7.38469 6.05263 7.60987 6.13663C7.83441 6.22091 7.97859 6.26365 8.0418 6.26365C8.08906 6.26365 8.24922 6.21367 8.52074 6.11404C8.77751 6.02164 8.99421 5.98338 9.17174 5.99845C9.6528 6.03727 10.0142 6.22691 10.2546 6.56856C9.82433 6.82924 9.6115 7.19436 9.61574 7.66274C9.61962 8.02758 9.75198 8.33118 10.0121 8.57224C10.13 8.68412 10.2616 8.77059 10.4081 8.832C10.3763 8.92412 10.3428 9.01236 10.3072 9.09706V9.09706ZM9.20386 4.75553C9.20386 5.04149 9.09939 5.30848 8.89115 5.55561C8.63986 5.8494 8.3359 6.01917 8.00629 5.99238C8.00209 5.95807 7.99966 5.92197 7.99966 5.88403C7.99966 5.60951 8.11916 5.31572 8.33139 5.07551C8.43734 4.95388 8.57209 4.85276 8.7355 4.77208C8.89856 4.69262 9.0528 4.64867 9.19786 4.64114C9.20209 4.67937 9.20386 4.7176 9.20386 4.75553V4.75553Z"/>
 </g>
 <defs>
  <clipPath id="clip0">
   <rect fill="#fff" width="6" height="6" transform="translate(5 4.5)"/>
  </clipPath>
 </defs>
</svg>
